svgs/sharp-solid/laptop-medical.svg

<svg xmlns="http://www.w3.org/2000/svg" viewBox="0 0 640 512"><!--! Font Awesome Pro 6.6.0 by @fontawesome - https://fontawesome.com License - https://fontawesome.com/license (Commercial License) Copyright 2024 Fonticons, Inc. --><path d="M64 32l32 0 448 0 32 0 0 32 0 288-64 0 0-256L128 96l0 256-64 0L64 64l0-32zM0 432l0-48 640 0 0 48-48 48L48 480 0 432zM288 144l64 0 0 64 64 0 0 64-64 0 0 64-64 0 0-64-64 0 0-64 64 0 0-64z"/></svg>

<svg xmlns="http://www.w3.org/2000/svg" viewBox="0 0 640 512"><!--! Font Awesome Pro 6.4.0 by @fontawesome - https://fontawesome.com License - https://fontawesome.com/license (Commercial License) Copyright 2023 Fonticons, Inc. --><path d="M64 32H96 544h32V64 352H512V96H128V352H64V64 32zM0 432V384H640v48l-48 48H48L0 432zM288 144h64v64h64v64H352v64H288V272H224V208h64V144z"/></svg>
